resources/icons/20px/lengthen-text.svg

<svg width="20" height="20" viewBox="0 0 20 20" fill="none" xmlns="http://www.w3.org/2000/svg">
<path fill-rule="evenodd" clip-rule="evenodd" d="M0.833333 16H9.16667C9.625 16 10 15.55 10 15C10 14.45 9.625 14 9.16667 14H0.833333C0.375 14 0 14.45 0 15C0 15.55 0.375 16 0.833333 16ZM1 11H19C19.55 11 20 10.55 20 10C20 9.45 19.55 9 19 9H1C0.45 9 0 9.45 0 10C0 10.55 0.45 11 1 11ZM16 13.0002C16 13.2802 16.11 13.5302 16.29 13.7102L16.59 14.0002H13C12.45 14.0002 12 14.4502 12 15.0002C12 15.5502 12.45 16.0002 13 16.0002H16.59L16.3 16.2902C16.11 16.4702 16 16.7202 16 17.0002C16 17.5502 16.45 18.0002 17 18.0002C17.28 18.0002 17.53 17.8902 17.71 17.7102L19.71 15.7102C19.89 15.5202 20 15.2702 20 15.0002C20 14.7202 19.89 14.4702 19.71 14.2902L17.71 12.2902C17.53 12.1102 17.28 12.0002 17 12.0002C16.45 11.9902 16 12.4402 16 13.0002ZM1 6H19C19.55 6 20 5.55 20 5C20 4.45 19.55 4 19 4H1C0.45 4 0 4.45 0 5C0 5.55 0.45 6 1 6Z" fill="#111418"/>
</svg>

<svg xmlns="http://www.w3.org/2000/svg" viewBox="0 0 20 20">
  <path d="M.833 16h8.334c.458 0 .833-.45.833-1s-.375-1-.833-1H.833C.375 14 0 14.45 0 15s.375 1 .833 1M1 11h18c.55 0 1-.45 1-1s-.45-1-1-1H1c-.55 0-1 .45-1 1s.45 1 1 1m15 2c0 .28.11.53.29.71l.3.29H13c-.55 0-1 .45-1 1s.45 1 1 1h3.59l-.29.29c-.19.18-.3.43-.3.71a1.003 1.003 0 0 0 1.71.71l2-2c.18-.19.29-.44.29-.71 0-.28-.11-.53-.29-.71l-2-2A1 1 0 0 0 17 12a.99.99 0 0 0-1 1M1 6h18c.55 0 1-.45 1-1s-.45-1-1-1H1c-.55 0-1 .45-1 1s.45 1 1 1"/>
</svg>
